X:1
T: Sunlight Through Draperies
N:
C:
S:Tune is "Judy and Jim's Wedding"
A:
O:
R:
M:3/4
K:F
I:speed 180
%W:
% voice 1 (1 lines, 30 notes)
K:F
M:3/4
L:1/16
F6 G2 A2 B2 |c4 f6 e2 |c4 f4 a2 f2 |d8 f2 g2 |f6 e2 d2 c2 |d4 c4 F4 |A2 B2 A2 G2 F2 G2 |F4 E4 C4 |
%W:
% voice 1 (1 lines, 27 notes)
F6 G2 A2 B2 |c4 f6 e2 |c4 f4 a2 f2 |d8 f2 g2 |a6 g2 f2 e2 |f4 e4 d4 |c4 f6 e2 |f8 f2 g2 |
%W:
% voice 1 (1 lines, 27 notes)
a6 g2 f2 a2 |g4 f4 e4 |f6 g2 f2 e2 |e4 d4 A2 B2 |c4 f6 c2 |B4 f6 B2 |A4 f4 A4 |G8 f2 g2 |
%W:
% voice 1 (1 lines, 26 notes)
a6 g2 f2 a2 |g4 f4 g4 |a4 c'4 g2 a2 |b4 a4 f2 g2 |a6 g2 f2 e2 |f4 e4 d4 |c4 f6 e2 |f12 ||
